!!!!SEGMENT: pl-wn--sd-xvi-qu-273--111_gomolka-mikolaj--pana-ja-zawzdy-miedzy-cnotliwymi.krn
!!!cenid: 15xx:316
!!!COM: Gomółka, Mikołaj
!!!COM-rismid: pe30013343
!!!CDT: ~1535->1591/04/30
!!!CNT: Polish
!!!GTL: Melodiae na psalterz polski
!!!OTL: CXI. Pana ja zawżdy między cnotliwymi
!!!ONB: PSALM CXI. Confitebor tibi domine in toto corde meo: in conſilio iuſtorum et congregatione.
!!!PDT: 1580
!!!AGN: Sacred
!!!SMS-siglum: PL-Wn
!!!SMS-shelfmark: SD XVI.Qu.273
!!!SMS-shelfwork: 111 G
!!!NIFC-rismid:
!!!ONB-nifc: Melodiae na psalterz polski
**kern	**text	**kern	**text	**kern	**text	**kern	**text
*part4	*part4	*part3	*part3	*part2	*part2	*part1	*part1
*staff4	*staff4	*staff3	*staff3	*staff2	*staff2	*staff1	*staff1
*clefF4	*	*clefC3	*	*clefC3	*	*clefC1	*
*k[b-]	*	*k[b-]	*	*k[b-]	*	*k[b-]	*
*F:	*	*F:	*	*F:	*	*F:	*
*M2/1	*	*M2/1	*	*M2/1	*	*M2/1	*
*met(C|)	*	*met(C|)	*	*met(C|)	*	*met(C|)	*
*I"BASSUS.	*	*I"TENOR.	*	*I"ALTUS.	*	*I"CANTUS.	*
=1-	=1	=1-	=1	=1-	=1	=1-	=1
1F\	PA-	1f\	PA-	1a\	PA-	1cc\	PA-
2C/	-ná	2e\	-ná	2g\	-ná	2cc\	-ná
2D/	ia	2f\	ia	2f\	ia	2a\	ia
=2-	=2	=2-	=2	=2-	=2	=2-	=2
4BB-/	ʒá-	1d\	ʒá-	2f\	ʒá-	1b-\	ʒá-
4C/	.	.	.	.	.	.	.
4D\	-wʒ̇dy	.	.	4F/	-wʒ̇dy	.	.
4E\	.	.	.	4G/	.	.	.
2F\	mię-	2c/	-wʒ̇dy	4A/	.	2a\	-wʒ̇dy
.	.	.	.	4G/	mię-	.	.
2D/	.	2f\	mię-	4A/	.	2a\	mię-
.	.	.	.	4B-/	.	.	.
=3-	=3	=3-	=3	=3-	=3	=3-	=3
2AA/	-dʒy	2e\	-dʒy	2c\	-dʒy	2cc\	-dʒy
4D/	cnot-	4f\	cnot-	2d\	cnot-	2a\	cnot-
4C/	.	4e\	.	.	.	.	.
4BB-/	-li-	4d\	-li-	2.d\	-li-	2b-\	-li-
4AA/	.	4c\	.	.	.	.	.
2BB-/	-we-	2d\	-we-	.	.	2b-\	-we-
.	.	.	.	4e\	.	.	.
=4-	=4	=4-	=4	=4-	=4	=4-	=4
2FF/	-mi,	2.c/	-mi,	2f\	-we-	2.a\	-mi,
2.F\	Chę-	.	.	2c\	-mi,	.	.
.	.	4B-/	.	.	.	4g/	.
.	.	2A/	Chę-	2c\	Chę-	2.f/	Chę-
4E\	.	.	.	.	.	.	.
4D/	-tnie	2A/	-tnie	4d\	-tnie	.	.
4C/	.	.	.	4e\	.	4e/	.
=5-	=5	=5-	=5	=5-	=5	=5-	=5
2.BB-/	wſpo-	2.d\	wſpo-	4f\	wſpo-	2d/	-tnie
.	.	.	.	4e\	.	.	.
.	.	.	.	2.d\	-mi-	2f/	wſpo-
4AA/	.	4c/	.	.	.	.	.
2GG/	-mi-	2B-/	-mi-	.	.	2b-\	-mi-
.	.	.	.	4c\	.	.	.
2GG/	-náć	2B-/	-náć	4d\	-náć	4a\	-náć
.	.	.	.	4e\	.	4g\	.
=6-	=6	=6-	=6	=6-	=6	=6-	=6
!!LO:PB:g=original
2FF/	bę-	2c/	bę-	2.f\	bę-	2a\	bę-
2F\	-dę	2c/	-dę	.	.	2a\	-dę
.	.	.	.	4e\	-dę	.	.
2BB-/	ry-	2.B-/	ry-	2d\	ry-	2g/	ry-
2BB-/	-my	.	.	2d\	-my	1f/	-my
.	.	4A/	-my	.	.	.	.
=7-	=7	=7-	=7	=7-	=7	=7-	=7
1C/	ſwe	4G/	ſwe-	2.c/	ſwe-	.	.
.	.	4F/	.	.	.	.	.
.	.	2G/	-mi.	.	.	2e/	ſwe-
.	.	.	.	4B-/	-mi.	.	.
1FF/	-mi.	1F/	.	1A/	.	1f/	-mi.
=8-	=8	=8-	=8	=8-	=8	=8-	=8
2r	.	2r	.	2r	.	2r	.
2F\	Chwal-	2F/	Chwàl-	2c/	Chwàl-	2a\	Chwàl-
2D/	-né	2A/	-né	2d\	-né	2a\	-né
2D/	ſą	2B-/	ſą	2d\	ſą	4g/	ſą
.	.	.	.	.	.	4f/	.
=9-	=9	=9-	=9	=9-	=9	=9-	=9
2C/	ſprà-	2c/	ſprà-	2e\	ſprà-	2e/	ſprà-
1F\	-wy	2c/	-wy	2a\	-wy	1cc\	-wy
.	.	1d\	ie-	2a\	ie-	.	.
2G\	ie-	.	.	4g\	.	2b-\	ie-
.	.	.	.	4f\	.	.	.
=10-	=10	=10-	=10	=10-	=10	=10-	=10
2A\	-go:	2c/	-go:	2e\	-go:	2a\	-go:
1D\	wiel-	1f\	wiel-	1d\	wiel-	1a\	wiel-
2E\	-ką	2e\	-ką	2g\	-ką	2g\	-ką
=11-	=11	=11-	=11	=11-	=11	=11-	=11
2F\	czu-	1d\	czu-	2f\	czu-	2a\	czu-
2G\	.	.	.	4e\	.	2b-\	.
.	.	.	.	4d\	.	.	.
!!LO:PB:g=original
2C/	-ie	2c/	-ie	2e\	-ie	2cc\	-ie
4D\	Roſ-	2B-/	Roſ-	2d\	.	4f/	Roſ-
4E\	.	.	.	.	.	4g/	.
=12-	=12	=12-	=12	=12-	=12	=12-	=12
2F\	-koſʒ,	2A/	.	2c\	Roſ-	4a\	.
.	.	.	.	.	.	4g\	.
2D\	kto	2d\	-koſʒ,	2f\	-koſʒ,	4a\	-koſʒ,
.	.	.	.	.	.	4b-\	.
2E\	ſye	2.c\	.	2g\	.	2cc\	kto
2.F\	im	.	.	4a\	kto	2.f/	ſye
.	.	4B-/	kto	4g\	ſye	.	.
=13-	=13	=13-	=13	=13-	=13	=13-	=13
.	.	4A/	ſye	2.f\	im	.	.
4E\	pil-	4G/	im	.	.	4g/	im
4D/	-nie	2F/	pil-	.	.	2a\	pil-
4C/	prʒy-	.	.	4e\	pil-	.	.
1BB-/	-pá-	4d\	-nie	4d\	-nie	2a\	-nie
.	.	4c\	prʒy-	4e\	prʒy-	.	.
.	.	4B-/	-pá-	1f\	-pá-	4dd\	prʒy-
.	.	4A/	.	.	.	4cc\	.
=14-	=14	=14-	=14	=14-	=14	=14-	=14
1C/	-tru-	4G/	.	.	.	4b-\	-pá-
.	.	4F/	-tru-	.	.	4a\	.
.	.	2G/	.	2e\	-tru-	2g\	-tru-
*	*	*000/left	*	*	*	*	*
000FF/	-ie.	000F/	-ie.	000f\	-ie.	000a\	-ie.
==	==	==	==	==	==	==	==
*-	*-	*-	*-	*-	*-	*-	*-
!!!RDF**kern: l = terminal long
!!!system-decoration: s1,s2,s3,s4
!!!ENC: Marta Lawrence
!!!END: 2020-02-18
!!!URL-scan: https://polona.pl/item/melodiae-na-psalterz-polski,Nzk3MTM4ODQ/257 Scan on Polona
!!!IIIF: https://polona.pl/iiif/item/Nzk3MTM4ODQ/manifest.json
